actions/16/selection-checked.svg

<?xml version="1.0" encoding="UTF-8" standalone="no"?>
<svg
   xmlns:dc="http://purl.org/dc/elements/1.1/"
   xmlns:cc="http://creativecommons.org/ns#"
   xmlns:rdf="http://www.w3.org/1999/02/22-rdf-syntax-ns#"
   xmlns:svg="http://www.w3.org/2000/svg"
   xmlns="http://www.w3.org/2000/svg"
   xmlns:xlink="http://www.w3.org/1999/xlink"
   version="1.2"
   width="16"
   height="16"
   id="svg2">
  <defs
     id="defs4">
    <linearGradient
       x1="2035.1652"
       y1="3208.0737"
       x2="2035.1652"
       y2="3241.9966"
       id="linearGradient11527-6"
       xlink:href="#linearGradient27416-1-5"
       gradientUnits="userSpaceOnUse"
       gradientTransform="matrix(0.57484957,0,0,0.42975531,-1164.0142,-1377.7717)" />
    <linearGradient
       id="linearGradient27416-1-5">
      <stop
         id="stop27420-2-2"
         style="stop-color:#55c1ec;stop-opacity:1"
         offset="0" />
      <stop
         id="stop27422-3-2"
         style="stop-color:#3689e6;stop-opacity:1"
         offset="1" />
    </linearGradient>
    <linearGradient
       id="linearGradient4011-0-8-3">
      <stop
         id="stop4013-2-3-6"
         style="stop-color:#ffffff;stop-opacity:1"
         offset="0" />
      <stop
         id="stop4015-7-1-68"
         style="stop-color:#ffffff;stop-opacity:0.23529412"
         offset="0.507761" />
      <stop
         id="stop4017-13-5-6"
         style="stop-color:#ffffff;stop-opacity:0.15686275"
         offset="0.83456558" />
      <stop
         id="stop4019-92-5-3"
         style="stop-color:#ffffff;stop-opacity:0.39215687"
         offset="1" />
    </linearGradient>
    <linearGradient
       x1="71.204407"
       y1="6.2375584"
       x2="71.204407"
       y2="44.340794"
       id="linearGradient12398"
       xlink:href="#linearGradient4011-0-8-3"
       gradientUnits="userSpaceOnUse"
       gradientTransform="matrix(0.35135153,0,0,0.35135153,-17.203685,-0.9093047)" />
  </defs>
  <metadata
     id="metadata7">
    <rdf:RDF>
      <cc:Work
         rdf:about="">
        <dc:format>image/svg+xml</dc:format>
        <dc:type
           rdf:resource="http://purl.org/dc/dcmitype/StillImage" />
        <dc:title />
      </cc:Work>
    </rdf:RDF>
  </metadata>
  <path
     d="M 8,0.50000007 C 3.8617571,0.50000007 0.49999994,3.8617572 0.49999994,8 c 0,4.138243 3.36175716,7.5 7.50000006,7.5 4.138243,0 7.500007,-3.361757 7.5,-7.5 C 15.5,3.8617572 12.138243,0.50000007 8,0.50000007 z"
     id="path2555-7-8-5-0"
     style="opacity:0.98999999;color:#000000;fill:url(#linearGradient11527-6);fill-opacity:1;fill-rule:nonzero;stroke:none;stroke-width:0.99999982;marker:none;visibility:visible;display:inline;overflow:visible;enable-background:accumulate" />
  <path
     d="m 8,0.50000008 c -4.1382429,0 -7.50000006,3.36175712 -7.50000006,7.50000002 C 0.49999994,12.138243 3.8617571,15.5 8,15.5 c 4.138243,0 7.500007,-3.361757 7.5,-7.4999999 C 15.5,3.8617572 12.138243,0.50000008 8,0.50000008 z"
     id="path2555-7-8-5"
     style="opacity:0.5;color:#000000;fill:none;stroke:#005485;stroke-width:0.99999988;stroke-linecap:round;stroke-linejoin:round;stroke-miterlimit:4;stroke-opacity:1;stroke-dasharray:none;stroke-dashoffset:0;marker:none;visibility:visible;display:inline;overflow:visible;enable-background:accumulate" />
  <path
     d="M 10.847543,4.8202283 12.2857,6.1145784 7.4534786,12.5 3.7142714,9.2785283 4.9510856,7.6390212 7.1370857,9.5373926 10.847543,4.8202283 z"
     id="path2922-6-6-0-9-4"
     style="color:#000000;fill:#2f78c7;fill-opacity:0.99215686;fill-rule:nonzero;stroke:none;stroke-width:0.84323651;marker:none;visibility:visible;display:inline;overflow:visible;enable-background:accumulate" />
  <path
     d="M 10.847543,3.8202285 12.2857,5.1145785 7.4534786,11.5 3.7142714,8.2785285 4.9510856,6.6390213 7.1370857,8.5373928 10.847543,3.8202285 z"
     id="path2922-6-6-0-9"
     style="color:#000000;fill:#ffffff;fill-opacity:1;fill-rule:nonzero;stroke:none;stroke-width:0.84323651;marker:none;visibility:visible;display:inline;overflow:visible;enable-background:accumulate" />
  <path
     d="M 14.5,7.9997643 C 14.5,11.589737 11.589633,14.5 8.0000788,14.5 4.4101952,14.5 1.4999999,11.589702 1.4999999,7.9997643 c 0,-3.5898014 2.9101953,-6.4997709 6.5000789,-6.4997709 3.5895542,0 6.4999212,2.9099695 6.4999212,6.4997709 l 0,0 z"
     id="path8655-6-0-9-5"
     style="opacity:0.5;color:#000000;fill:none;stroke:url(#linearGradient12398);stroke-width:0.99999982;stroke-linecap:round;stroke-linejoin:round;stroke-miterlimit:4;stroke-opacity:1;stroke-dasharray:none;stroke-dashoffset:0;marker:none;visibility:visible;display:inline;overflow:visible;enable-background:accumulate" />
</svg>

<svg xmlns="http://www.w3.org/2000/svg" xmlns:xlink="http://www.w3.org/1999/xlink" viewBox="0 0 16 16"><defs><linearGradient x1="2035.165" y1="3208.074" x2="2035.165" y2="3241.997" id="c" xlink:href="#a" gradientUnits="userSpaceOnUse" gradientTransform="matrix(.57485 0 0 .42976 -1164.014 -1377.772)"/><linearGradient id="a"><stop offset="0" stop-color="#55c1ec"/><stop offset="1" stop-color="#3689e6"/></linearGradient><linearGradient id="b"><stop offset="0" stop-color="#fff"/><stop offset=".508" stop-color="#fff" stop-opacity=".235"/><stop offset=".835" stop-color="#fff" stop-opacity=".157"/><stop offset="1" stop-color="#fff" stop-opacity=".392"/></linearGradient><linearGradient x1="71.204" y1="6.238" x2="71.204" y2="44.341" id="d" xlink:href="#b" gradientUnits="userSpaceOnUse" gradientTransform="translate(-17.204 -.91) scale(.35135)"/></defs><path d="M8 .5A7.505 7.505 0 0 0 .5 8c0 4.138 3.362 7.5 7.5 7.5s7.5-3.362 7.5-7.5S12.138.5 8 .5z" opacity=".99" color="#000" fill="url(#c)" overflow="visible"/><path d="M8 .5A7.505 7.505 0 0 0 .5 8c0 4.138 3.362 7.5 7.5 7.5s7.5-3.362 7.5-7.5S12.138.5 8 .5z" opacity=".5" color="#000" fill="none" stroke="#005485" stroke-linecap="round" stroke-linejoin="round" overflow="visible"/><path d="M10.848 4.82l1.438 1.295L7.453 12.5l-3.74-3.22L4.95 7.64l2.19 1.897 3.71-4.717z" color="#000" fill="#2f78c7" fill-opacity=".992" overflow="visible"/><path d="M10.848 3.82l1.438 1.295L7.453 11.5l-3.74-3.22L4.95 6.64l2.19 1.897 3.71-4.717z" color="#000" fill="#fff" overflow="visible"/><path d="M14.5 8a6.5 6.5 0 1 1-13 0 6.5 6.5 0 0 1 13 0z" opacity=".5" color="#000" fill="none" stroke="url(#d)" stroke-linecap="round" stroke-linejoin="round" overflow="visible"/></svg>
